app/assets/icons/delete.svg

<svg width="18" height="20" viewBox="0 0 18 20" fill="none" xmlns="http://www.w3.org/2000/svg">
<path d="M17.25 3.6875H13.3125V2.75C13.3125 2.20299 13.0952 1.67839 12.7084 1.29159C12.3216 0.904799 11.797 0.6875 11.25 0.6875H6.75C6.20299 0.6875 5.67839 0.904799 5.29159 1.29159C4.9048 1.67839 4.6875 2.20299 4.6875 2.75V3.6875H0.75C0.600816 3.6875 0.457742 3.74676 0.352252 3.85225C0.246763 3.95774 0.1875 4.10082 0.1875 4.25C0.1875 4.39918 0.246763 4.54226 0.352252 4.64775C0.457742 4.75324 0.600816 4.8125 0.75 4.8125H1.6875V18.5C1.6875 18.8481 1.82578 19.1819 2.07192 19.4281C2.31806 19.6742 2.6519 19.8125 3 19.8125H15C15.3481 19.8125 15.6819 19.6742 15.9281 19.4281C16.1742 19.1819 16.3125 18.8481 16.3125 18.5V4.8125H17.25C17.3992 4.8125 17.5423 4.75324 17.6477 4.64775C17.7532 4.54226 17.8125 4.39918 17.8125 4.25C17.8125 4.10082 17.7532 3.95774 17.6477 3.85225C17.5423 3.74676 17.3992 3.6875 17.25 3.6875ZM5.8125 2.75C5.8125 2.50136 5.91127 2.2629 6.08709 2.08709C6.2629 1.91127 6.50136 1.8125 6.75 1.8125H11.25C11.4986 1.8125 11.7371 1.91127 11.9129 2.08709C12.0887 2.2629 12.1875 2.50136 12.1875 2.75V3.6875H5.8125V2.75ZM15.1875 18.5C15.1875 18.5497 15.1677 18.5974 15.1326 18.6326C15.0974 18.6677 15.0497 18.6875 15 18.6875H3C2.95027 18.6875 2.90258 18.6677 2.86742 18.6326C2.83225 18.5974 2.8125 18.5497 2.8125 18.5V4.8125H15.1875V18.5ZM7.3125 8.75V14.75C7.3125 14.8992 7.25324 15.0423 7.14775 15.1477C7.04226 15.2532 6.89918 15.3125 6.75 15.3125C6.60082 15.3125 6.45774 15.2532 6.35225 15.1477C6.24676 15.0423 6.1875 14.8992 6.1875 14.75V8.75C6.1875 8.60082 6.24676 8.45774 6.35225 8.35225C6.45774 8.24676 6.60082 8.1875 6.75 8.1875C6.89918 8.1875 7.04226 8.24676 7.14775 8.35225C7.25324 8.45774 7.3125 8.60082 7.3125 8.75ZM11.8125 8.75V14.75C11.8125 14.8992 11.7532 15.0423 11.6477 15.1477C11.5423 15.2532 11.3992 15.3125 11.25 15.3125C11.1008 15.3125 10.9577 15.2532 10.8523 15.1477C10.7468 15.0423 10.6875 14.8992 10.6875 14.75V8.75C10.6875 8.60082 10.7468 8.45774 10.8523 8.35225C10.9577 8.24676 11.1008 8.1875 11.25 8.1875C11.3992 8.1875 11.5423 8.24676 11.6477 8.35225C11.7532 8.45774 11.8125 8.60082 11.8125 8.75Z" fill="#222222"/>
</svg>

<svg width="18" height="20" fill="none" xmlns="http://www.w3.org/2000/svg"><path d="M17.25 3.688h-3.938V2.75A2.062 2.062 0 0 0 11.25.687h-4.5A2.063 2.063 0 0 0 4.687 2.75v.938H.75a.562.562 0 1 0 0 1.124h.938V18.5A1.313 1.313 0 0 0 3 19.813h12a1.313 1.313 0 0 0 1.313-1.313V4.812h.937a.562.562 0 1 0 0-1.125ZM5.812 2.75a.937.937 0 0 1 .938-.938h4.5a.937.937 0 0 1 .938.938v.938H5.811V2.75Zm9.375 15.75a.188.188 0 0 1-.187.188H3a.188.188 0 0 1-.188-.188V4.812h12.376V18.5ZM7.314 8.75v6a.562.562 0 1 1-1.125 0v-6a.563.563 0 1 1 1.125 0Zm4.5 0v6a.562.562 0 1 1-1.126 0v-6a.563.563 0 0 1 1.126 0Z" fill="#222"/></svg>
